X:1
T:Grose, 66.46.66.4
T:Howard Benjamin Grose, 1901
T:Grose, 66.46.66.4
T:Public Domain
C:Howard Benjamin Grose, 1901
Z:Public Domain
%%score ( 1 2 ) ( 3 4 )
L:1/8
M:4/4
K:G
V:1 treble 
V:2 treble 
V:3 bass 
V:4 bass 
V:1
 D4 [DG]2 [DB]2 | [FB]3 [FA] [EG]4 | E4 [EA]2 [Ec]2 | [Fc]3 [FB] [FA]4 | [DB]4 [G^c]2 [GA]2 | %5
 [Fd]6 z2 | [DA]4 [Fc]2 [DF]2 | [DG]3 [DA] [DB]4 | [DB]4 [Dd]2 [DB]2 | [Gc]3 [Gd] [Ge]4 | %10
 [Ge]4 [Ec]2 [DA]2 | [Dd]3 [DB] [EG]2 [CE]2 | (D2 z2 C2) [CA]2 | [B,G]6 z2 |] %14
V:2
 D4 x4 | x8 | E4 x4 | x8 | x8 | x8 | x8 | x8 | x8 | x8 | x8 | x8 | B,4 B4 | x8 |] %14
V:3
 [G,B,]4 [G,B,]2 G,2 | [D,C]3 [D,C] [E,B,]4 | [A,C]4 [A,C]2 A,2 | [D,A,]3 [D,B,] [D,C]4 | %4
 [G,B,]4 [E,A,]2 [E,A,]2 | [D,A,]6 z2 | [D,F,]4 [D,A,]2 [D,C]2 | [D,B,]3 [D,F,] G,4 | %8
 G,4 [G,B,]2 [=F,G,]2 | [E,C]3 [D,B,] [C,C]4 | [C,G,]4 [C,A,]2 [C,F,]2 | %11
 [B,,G,]3 [B,,G,] [C,G,]2 [C,G,]2 | (G,4 F,2) [D,F,]2 | [G,,G,]6 z2 |] %14
V:4
 x6 G,2 | x8 | x6 A,2 | x8 | x8 | x8 | x8 | x4 G,4 | G,4 x4 | x8 | x8 | x8 | D,6 x2 | x8 |] %14

